static/assets/svg/human/humanClothes/female_shirt2_stickers/female_shirt2_sticker16.svg

<svg class="shirtOverlay" width="86" height="380" viewBox="202.715 584.407 86.593 380.048" xmlns="http://www.w3.org/2000/svg"><path d="M-1943.506 629.148l106.942 134.826-32.441-86.743c-1.429-3.845 6.569-14.049 11.102-4.833 7.882 16.069 43.688 49.42 65.646 61.152 10.076 5.385 18.869 9.242 19.546 8.558 2.615-2.635-7.882-35.46-17.497-54.733-5.586-11.163-16.009-27.57-23.185-36.448-16.082-19.901-12.3-24.572 4.779-5.896 22.031 24.106 60.821 48.474 87.589 55.039 9.976 2.445 9.47-.044-4.852-24.018-13.108-21.952-30.044-41.953-47.772-56.451-21.322-17.453-13.354-20.03 9.053-2.94 20.759 15.837 40.092 24.775 70.725 32.665 23.433 6.041 32.73 7.045 32.613 3.493-.143-4.483-19.185-26.944-31.53-37.192-7.016-5.823-21.553-15.867-32.324-22.315-23.099-13.844-37.318-22.621-31.327-33.102 60.432-105.827 13.273-283.795 29.859-328.178 15.637-41.85 58.47-24.207 67.61-173.122 2.469-40.511-21.179-71.8-51.815-105.519-15.952-17.541-64.229-57.999-64.229-53.814 10.408 15.048 20.196 30.432 28.6 46.827 31.501 64.164 36.742 125.942 15.981 188.712-14.236 43.073-35.37 74.253-84.672 124.925-50.14 51.53-61.222 200.515-34.877 226.079 29.892 29.006 37.994 4.923 51.986 59.332 18.215 70.833-117.524 55.783-127.844 32.475l-23.816-69.763-27.824 46.799c-124.376 113.373-208.529-34.901-102.671-56.461 33.622-43.816 21.653-44.087 41.022-101.267 18.033-53.238-.385-86.306-52.041-140.486-53.026-55.606-72.956-96.297-84.304-147.522-7.189-32.461-9.074-87.362 1.422-120.399 8.965-28.223 24.514-59.792 38.707-78.558 11.375-15.027 9.57-14.172-21.946 10.431-42.127 32.888-72.69 76.009-83.517 117.859-6.382 24.63-4.49 73.002 3.782 96.569 11.232 32.054 22.652 53.728 50.703 88.388 14.35 16.725 17.381 46.474 7.767 74.748-22.796 67.046-28.795 295.355 9.58 258.757 6.007-5.729-6.698 22.053-30.028 35.926-25.871 15.372-55.019 40.904-61.805 54.121l-4.446 8.676 14.047-1.98c34.244-4.847 72.978-21.412 95.76-40.947 20.139-17.294 19.576-7.861-.664 10.83-10.597 9.796-24.095 24.484-30 32.636-14.062 19.433-27.286 42.68-25.38 44.587 2.425 2.46 22.074-4.79 43.975-16.217 12.199-6.361 29.104-19.054 42.343-31.791 12.127-11.645 22.825-20.394 23.778-19.433.953.96-4.649 10.131-12.43 20.379-16.444 21.617-29.625 48.226-35.775 72.143-4.995 19.491-3.855 20.175 15.187 9.039 30.347-17.759 69.904-56.13 69.904-67.819 0-1.863 6.843-4.818 6.352-3.392l-41.603 100.621 109.833-136.077 46.422.824z" transform="matrix(-.13116 .00384 -.00233 -.21627 -9.04 817.01)" fill="#e4e4e4" stroke="#393939"/></svg>

<svg class="shirtOverlay" width="86" height="380" viewBox="202.715 584.407 86.5933 380.048" preserveAspectRatio="xMidYMid meet" xmlns="http://www.w3.org/2000/svg">
  <defs id="svgEditorDefs">
    <path id="svgEditorClosePathDefs" class="skin" fill="black" style="stroke-width: 0px; stroke: none;"/>
  </defs>
  <g transform="matrix(0.13118, 0, 0, 0.216305, 502.368225, 667.920166)">
    <path id="path5840" d="M -1943.506 629.148 L -1836.564 763.974 L -1869.005 677.231 C -1870.434 673.386 -1862.436 663.182 -1857.903 672.398 C -1850.021 688.467 -1814.215 721.818 -1792.257 733.55 C -1782.181 738.935 -1773.388 742.792 -1772.711 742.108 C -1770.096 739.473 -1780.593 706.648 -1790.208 687.375 C -1795.794 676.212 -1806.217 659.805 -1813.393 650.927 C -1829.475 631.026 -1825.693 626.355 -1808.614 645.031 C -1786.583 669.137 -1747.793 693.505 -1721.025 700.07 C -1711.049 702.515 -1711.555 700.026 -1725.877 676.052 C -1738.985 654.1 -1755.921 634.099 -1773.649 619.601 C -1794.971 602.148 -1787.003 599.571 -1764.596 616.661 C -1743.837 632.498 -1724.504 641.436 -1693.871 649.326 C -1670.438 655.367 -1661.141 656.371 -1661.258 652.819 C -1661.401 648.336 -1680.443 625.875 -1692.788 615.627 C -1699.804 609.804 -1714.341 599.76 -1725.112 593.312 C -1748.211 579.468 -1762.43 570.691 -1756.439 560.21 C -1696.007 454.383 -1743.166 276.415 -1726.58 232.032 C -1710.943 190.182 -1668.11 207.825 -1658.97 58.91 C -1656.501 18.399 -1680.149 -12.89 -1710.785 -46.609 C -1726.737 -64.15 -1775.014 -104.608 -1775.014 -100.423 C -1764.606 -85.375 -1754.818 -69.991 -1746.414 -53.596 C -1714.913 10.568 -1709.672 72.346 -1730.433 135.116 C -1744.669 178.189 -1765.803 209.369 -1815.105 260.041 C -1865.245 311.571 -1876.327 460.556 -1849.982 486.12 C -1820.09 515.126 -1811.988 491.043 -1797.996 545.452 C -1779.781 616.285 -1915.52 601.235 -1925.84 577.927 L -1949.656 508.164 L -1977.48 554.963 C -2101.856 668.336 -2186.009 520.062 -2080.151 498.502 C -2046.529 454.686 -2058.498 454.415 -2039.129 397.235 C -2021.096 343.997 -2039.514 310.929 -2091.17 256.749 C -2144.196 201.143 -2164.126 160.452 -2175.474 109.227 C -2182.663 76.766 -2184.548 21.865 -2174.052 -11.172 C -2165.087 -39.395 -2149.538 -70.964 -2135.345 -89.73 C -2123.97 -104.757 -2125.775 -103.902 -2157.291 -79.299 C -2199.418 -46.411 -2229.981 -3.29 -2240.808 38.56 C -2247.19 63.19 -2245.298 111.562 -2237.026 135.129 C -2225.794 167.183 -2214.374 188.857 -2186.323 223.517 C -2171.973 240.242 -2168.942 269.991 -2178.556 298.265 C -2201.352 365.311 -2207.351 593.62 -2168.976 557.022 C -2162.969 551.293 -2175.674 579.075 -2199.004 592.948 C -2224.875 608.32 -2254.023 633.852 -2260.809 647.069 L -2265.255 655.745 L -2251.208 653.765 C -2216.964 648.918 -2178.23 632.353 -2155.448 612.818 C -2135.309 595.524 -2135.872 604.957 -2156.112 623.648 C -2166.709 633.444 -2180.207 648.132 -2186.112 656.284 C -2200.174 675.717 -2213.398 698.964 -2211.492 700.871 C -2209.067 703.331 -2189.418 696.081 -2167.517 684.654 C -2155.318 678.293 -2138.413 665.6 -2125.174 652.863 C -2113.047 641.218 -2102.349 632.469 -2101.396 633.43 C -2100.443 634.39 -2106.045 643.561 -2113.826 653.809 C -2130.27 675.426 -2143.451 702.035 -2149.601 725.952 C -2154.596 745.443 -2153.456 746.127 -2134.414 734.991 C -2104.067 717.232 -2064.51 678.861 -2064.51 667.172 C -2064.51 665.309 -2057.667 662.354 -2058.158 663.78 L -2099.761 764.401 L -1989.928 628.324 L -1943.506 629.148 Z" transform="matrix(-0.999842, 0.017756, -0.017756, -0.999842, -3898.524182, 689.260169)" style="fill: rgb(228, 228, 228); stroke: rgb(57, 57, 57);"/>
  </g>
</svg>
